X:202
T:Allan "Big Alex' MacDonald
O:england
R:Strathspey
C:David Greenberg, SOCAN
N:published by Dungreen Music,1998 [dungreen@astral.magic.ca]
N:This unverified abc transcription is for personal use only, provided this notice remains attached.
N:usually played in raised bass tuning (AEAE)
L:1/8
M:C
K:A
B|A>Bc>B A>A,A,>c|d>cB>A d>FA>B|A>Bc>B A>A,A,>c|d>FA>B c>A (3Aaa|
A>Bc>B A>A,A,>c|d>cB>A d>F (3ABB|A>Bc<a A>Bc<e|d<FA>B c>A (3Aef||
e>fb>f e>cA>c|(3(dcB) (3(cBA) d>A F2|b<fe>f e>cA>c|B>AB>c A/A/A (3Aef|
e>fb>f e>cA>c|(3(dcB) (3(cBA) d>A F2|e>fe<c d>eddc>A F>GA|]
